storage/app/icons/tabler/filled/square-number-3.svg

<!--
version: "2.4"
unicode: "f766"
-->
<svg
  xmlns="http://www.w3.org/2000/svg"
  width="24"
  height="24"
  viewBox="0 0 24 24"
  fill="currentColor"
>
  <path d="M18.333 2c1.96 0 3.56 1.537 3.662 3.472l.005 .195v12.666c0 1.96 -1.537 3.56 -3.472 3.662l-.195 .005h-12.666a3.667 3.667 0 0 1 -3.662 -3.472l-.005 -.195v-12.666c0 -1.96 1.537 -3.56 3.472 -3.662l.195 -.005h12.666zm-5.333 5h-2l-.15 .005a2 2 0 0 0 -1.85 1.995a1 1 0 0 0 1.974 .23l.02 -.113l.006 -.117h2v2h-2l-.133 .007c-1.111 .12 -1.154 1.73 -.128 1.965l.128 .021l.133 .007h2v2h-2l-.007 -.117a1 1 0 0 0 -1.993 .117a2 2 0 0 0 1.85 1.995l.15 .005h2l.15 -.005a2 2 0 0 0 1.844 -1.838l.006 -.157v-2l-.005 -.15a1.988 1.988 0 0 0 -.17 -.667l-.075 -.152l-.019 -.032l.02 -.03a2.01 2.01 0 0 0 .242 -.795l.007 -.174v-2l-.005 -.15a2 2 0 0 0 -1.838 -1.844l-.157 -.006z" />
</svg>

<svg xmlns="http://www.w3.org/2000/svg" width="24" height="24" fill="currentColor" viewBox="0 0 24 24"><path d="M18.333 2c1.96 0 3.56 1.537 3.662 3.472l.005.195v12.666c0 1.96-1.537 3.56-3.472 3.662l-.195.005H5.667a3.667 3.667 0 0 1-3.662-3.472L2 18.333V5.667c0-1.96 1.537-3.56 3.472-3.662L5.667 2zM13 7h-2l-.15.005A2 2 0 0 0 9 9a1 1 0 0 0 1.974.23l.02-.113L11 9h2v2h-2l-.133.007c-1.111.12-1.154 1.73-.128 1.965l.128.021L11 13h2v2h-2l-.007-.117A1 1 0 0 0 9 15a2 2 0 0 0 1.85 1.995L11 17h2l.15-.005a2 2 0 0 0 1.844-1.838L15 15v-2l-.005-.15a2 2 0 0 0-.17-.667l-.075-.152-.019-.032.02-.03a2 2 0 0 0 .242-.795L15 11V9l-.005-.15a2 2 0 0 0-1.838-1.844z"/></svg>
